X:214
T:Valse de l'amiti\'e
S:Laurence Beaudry
Z:robin.beech@mcgill.ca
M:3/4
L:1/8
K:D
A&gt;d | f&gt;f f&gt;d A&gt;d | f&gt;f f&gt;d A&gt;d | a3- a&gt;f d&gt;f | e3 ABc |
e&gt;e e&gt;A B&gt;c | e&gt;e e&gt;d e&gt;f | g2 f2 e2 |1 f3 dAd :|2 d6 |:

